X:399
T: VIVAT JETZT GEHTS INS FELD
N: E0326
O: Europa, Mitteleuropa, Deutschland
R: historisches Lied, Krieg, Schlacht bei Lowositz (1756)
M: 4/4
L: 1/8
K: C
G2 | c2c2c2c2 | G4z2
G2 | A2A2ABcA | G4z2
G2 | GFFEF3F | EGGcc3
G | AGFEGFED | C4z2

